src/normal/vol_n.svg

<!-- Generated by IcoMoon.io -->
<svg version="1.1" xmlns="http://www.w3.org/2000/svg" width="24" height="24" viewBox="0 0 24 24">
<title>volume</title>
<path d="M12.768 1l-4 5h-4c-1.655 0-2.768 1.596-2.768 3.25v5.75c0 1.654 1.113 3 2.768 3h4l4 5c1 0 2.232 0 2.232 0v-22c-1 0-1.232 0-2.232 0zM8 16h-3.232c-0.553 0-0.768-0.449-0.768-1v-5.75c0-0.551 0.215-1.25 0.768-1.25h3.232v8zM13 20l-4-4v-8l4-4v16zM17 7v2.083c2 0.415 2 1.515 2 2.815 0 1.303 0 2.402-2 2.816v2.083c3-0.465 4-2.484 4-4.899 0-2.414-1-4.433-4-4.898z"></path>
</svg>

<svg xmlns="http://www.w3.org/2000/svg" width="24" height="24"><path d="M12.768 1l-4 5h-4C3.113 6 2 7.596 2 9.25V15c0 1.654 1.113 3 2.768 3h4l4 5H15V1h-2.232zM8 16H4.768C4.215 16 4 15.551 4 15V9.25C4 8.699 4.215 8 4.768 8H8v8zm5 4l-4-4V8l4-4v16zm4-13v2.083c2 .415 2 1.515 2 2.815 0 1.303 0 2.402-2 2.816v2.083c3-.465 4-2.484 4-4.899C21 9.484 20 7.465 17 7z"/></svg>
